X: 1736
T: Sensiz Geceler Geçti...
C: Musa Süreyya Bey
O: Turkey
F: http://compmusic.upf.edu/node/140
N: suzinak--sarki--senginsemai--sensiz_geceler--musa_sureyya_bey
N: makam= suzinak
N: form= sarki
N: usul= senginsemai = 6/4
M: 6/4
L: 1/16
K: C _1/4B _7/8e ^f 
Q: 1/4=72
%%MIDI tuningsystem comma53
B3A G4 c3B BcBA A2AB ABAG  | d3/2c/Bc d2ed aggf feed d8  | 
w:  ARANAĞME  |   | 
d3a g3f e3d c2d2 edeg feed  | Bcd=e dccB B3A A2AG G8  | 
w:   |   | 
B3A G4 c3B BcBA A2AB ABAG  | d3/2c/Bc d2ed aggf feed d8  | 
w:  ARANAĞME  |   | 
d3a g3f e3d c2d2 edeg feed  | Bcd=e dccB B3A A2AG G8  | 
w:   |   | 
c3d d4 d2cB dfed d6z2  | cBc=e d3c B3A ABAG G8  | 
w:  Sen *  siz  ge *  *  ce *  *  *  ler   |  geç *  *  *  *  *  ti  *  ha *  *  *  yâ  | 
BcBA B4 c4 d4 e2f2 e2d2  | c4 d4 dedc BAAG G8  | 
w:  lât_ *  *  *  *  i le  bî  |  hâb   *  SAZ  | 
c3d d4 d2cB dfed d6z2  | cBc=e d3c B3A ABAG G8  | 
w:  Sen *  siz  ge *  *  ce *  *  *  ler   |  geç *  *  *  *  *  ti  *  ha *  *  *  yâ  | 
BcBA B4 c4 d4 e2f2 e2d2  | c4 d4 dedc dcBc d8  | 
w:  lât_ *  *  *  *  i le  bî  |  hâb   *  SAZ  | 
d4 a3g g3f f2ed e2f2 e2d2  | dcd=e cBcd BABc A2d2 dcBA G4  | 
w:  Gös ter  *  ba *  na  *  *  gül   |  çeh *  *  *  re *  *  *  ni  *  *  *  ey   | 
G3A B3A G4 =ed2c B3A A2AG  | G3A B2c2 d2cB f2ed d8  | 
w:  sev *  *  *  gi li  *  *  meh  |  tâb   SAZ  | 
d4 a3g g3f f2ed e2f2 e2d2  | dcd=e cBcd BABc A2d2 dcBA G4  | 
w:  Gös ter  *  ba *  na  *  *  gül   |  çeh *  *  *  re *  *  *  ni  *  *  *  ey   | 
G3A B3A G4 =ed2c B3A A2AG  | G6z2 a_bag fgaf g8  | 
w:  sev *  *  *  gi li  *  *  meh  |  tâb   SAZ  | 
f4 g4 f2g2 a2ag g6z2  | g2=f=e d2cB cBce dcBA G6z2  | 
w:  Sev da na  *  dü *  *  şen   |  ol *  *  *  *  *  ma *  *  *  ya *  *  *  cak   | 
BcBA B4 c4 d4 e2f2 e2d2  | c4 d4 dedc dcBc d8  | 
w:  bil  *  *  *  *  ki  şi fâ  |  yâb   *  SAZ  | 
d4 a3g g3f f2ed e2f2 e2d2  | dcd=e cBcd BABc A2d2 dcBA G4  | 
w:  Gös ter  *  ba *  na  *  *  gül   |  çeh *  *  *  re *  *  *  ni  *  *  *  ey   | 
G3A B3A G4 =ed2c B3A A2AG  | G3A B2c2 d2cB f2ed d8  | 
w:  sev *  *  *  gi li  *  *  meh  |  tâb   SAZ  | 
d4 a3g g3f f2ed e2f2 e2d2  | dcd=e cBcd BABc A2d2 dcBA G4  | 
w:  Gös ter  *  ba *  na  *  *  gül   |  çeh *  *  *  re *  *  *  ni  *  *  *  ey   | 
G3A B3A G4 =ed2c B3A A2AG  | G3e d3c B3A A2AG G8  | 
w:  sev *  *  *  gi li  *  *  meh  |  KARAR  | 
|


